templates/default/images/icon_dcl.svg

<?xml version="1.0" encoding="utf-8"?>
<!-- Generator: Adobe Illustrator 26.3.1, SVG Export Plug-In . SVG Version: 6.00 Build 0)  -->
<svg version="1.1" id="Layer_1" xmlns="http://www.w3.org/2000/svg" xmlns:xlink="http://www.w3.org/1999/xlink" x="0px" y="0px"
	 viewBox="0 0 320 320" style="enable-background:new 0 0 320 320;" xml:space="preserve">
<style type="text/css">
	.st0{fill:#52658B;}
	.st1{fill:none;}
</style>
<path class="st0" d="M45,205h50v50H45V205z M110,205h165v50H110V205z M45,145h50v50H45V145z M110,145h165v50H110V145z M45,65h50v50
	H45V65z M110,65h165v50H110V65z M30,270h260V50H30V270z"/>
<rect class="st1" width="320" height="320"/>
</svg>

<svg id="Layer_1" data-name="Layer 1" xmlns="http://www.w3.org/2000/svg" viewBox="0 0 260 220"><defs><style>.cls-1{fill:#52658b;}</style></defs><path class="cls-1" d="M45,205H95v50H45Zm65,0H275v50H110ZM45,145H95v50H45Zm65,0H275v50H110ZM45,65H95v50H45Zm65,0H275v50H110ZM30,270H290V50H30Z" transform="translate(-30 -50)"/></svg>
